static/assets/head_icons_png/woman/yanjing/1038781.svg

<svg xmlns="http://www.w3.org/2000/svg" width="21" height="6"><g transform="translate(-59.9 -30)"><path d="M69 33.4l-.1-.55.1-.5.25-.25.25.25.1.5-.1.55-.25.2-.25-.2" fill="#e3d0c1" fill-opacity=".541"/><radialGradient id="a" gradientUnits="userSpaceOnUse" gradientTransform="matrix(-.00037 0 0 .00073 69.35 32.8)" spreadMethod="pad" cx="0" cy="0" r="819.2" fx="0" fy="0"><stop offset="0" stop-color="#fff"/><stop offset="1" stop-color="#fff" stop-opacity="0"/></radialGradient><path d="M69.2 33.1l.15.15.15-.15.05-.3-.05-.35-.15-.1q-.1 0-.15.1l-.1.35.1.3" fill="url(#a)"/><path d="M60.4 30.65l-.05-.2v-.1L60 30l-.1.05.1.4.05.4.2.25.05.05.1-.5m2.1 1.55l-.05-.15-.8-.3-.15.1v.25l.05.2.15.1.15.05h.65v-.25" fill="#311100"/><path d="M61.5 32.1v-.25l.15-.1-.2-.1-1.1-1.2.05.2-.1.5.05.05 1.2 1.1-.05-.2" fill="#65452e" fill-opacity=".792"/><path d="M62.5 32.45l.4.05v-.15l-.15-.2-.05-.1h-.25l.05.15v.25" fill="#8a6552"/><path d="M71.55 33.4l-.25.2-.25-.2-.1-.55.1-.5.25-.25.25.25.1.5-.1.55" fill="#e3d0c1" fill-opacity=".541"/><radialGradient id="b" gradientUnits="userSpaceOnUse" gradientTransform="matrix(.00037 0 0 .00073 71.25 32.8)" spreadMethod="pad" cx="0" cy="0" r="819.2" fx="0" fy="0"><stop offset="0" stop-color="#fff"/><stop offset="1" stop-color="#fff" stop-opacity="0"/></radialGradient><path d="M71.4 33.1l-.15.15-.2-.15-.05-.3.05-.35.2-.1.15.1.05.35-.05.3" fill="url(#b)"/><path d="M80.1 30.65l.05-.2v-.1l.35-.35.1.05-.1.4-.05.4-.2.25-.05.05-.1-.5M78 32.2l.05-.15.8-.3.15.1v.25l-.05.2-.15.1-.15.05H78v-.25" fill="#311100"/><path d="M79 32.1v-.25l-.15-.1.2-.1 1.1-1.2-.05.2.1.5-.05.05-1.2 1.1.05-.2" fill="#65452e" fill-opacity=".792"/><path d="M78 32.45l-.4.05v-.15l.15-.2.05-.1h.25l-.05.15v.25" fill="#8a6552"/><path d="M71.45 34.05l-.15-.45.05-.05.3.5.65.65.85.4.85.2.7-.05.7-.05.85-.2.5-.2.7-.5.45-.7.2-.45h.05v.1l-.35.75-.55.65-.45.25-.5.2-.9.2-.65.1h-.95l-.5-.15-.9-.35-.65-.5-.3-.35" fill="#a28067"/><path d="M71.75 34.4l.65.5.9.35.5.15h.95l.65-.1.9-.2.5-.2.45-.25.55-.65.35-.75V33.1l.05-.3v.25q-.1 2.25-3.2 2.55-2.95.45-3.55-1.55l.3.35" fill="#5c3317" fill-opacity=".243"/><path d="M77.3 31l-1.6-.2q-1.85-.05-3.55.65l-.55.2.55-.3q1.7-.65 3.55-.6l1.6.2.6.25-.6-.2" fill="#5a3a2b"/><linearGradient id="c" gradientUnits="userSpaceOnUse" gradientTransform="matrix(.00383 -.00023 .0001 .00157 74.75 32.1)" x1="-819.2" x2="819.2"><stop offset="0" stop-color="#50311c"/><stop offset=".424" stop-color="#beaca2"/><stop offset=".518" stop-color="#e3d8d1"/><stop offset=".635" stop-color="#ab978b"/><stop offset="1" stop-color="#714d35"/></linearGradient><path d="M77.9 31.2l.3 1.45v.15l-.05.3v.05h-.05l-.1-.45-.35-1.15q-2.5-.8-5.2 0l-.3.1q-.45.15-.55.35l-.05.35-.1.85v.05l-.1.3-.05-.35.05-.7V32l.2-.35h.05l.55-.2q1.7-.7 3.55-.65l1.6.2.6.2" fill="url(#c)"/><radialGradient id="d" gradientUnits="userSpaceOnUse" gradientTransform="matrix(.00476 0 0 .0048 74.5 34.7)" spreadMethod="pad" cx="0" cy="0" r="819.2" fx="0" fy="0"><stop offset="0" stop-color="#fff" stop-opacity=".482"/><stop offset="1" stop-color="#fff" stop-opacity="0"/></radialGradient><path d="M77.95 32.9q-.15 1.3-1.15 1.7l-3.05.4q-2.05.05-2-2 .15 1.65 2 1.7l2.85-.3q.9-.25 1.35-1.5" fill="url(#d)"/><path d="M62.45 33.15l.15.45.45.7.75.5.45.2.9.2.7.05.65.05.85-.2q.5-.1.85-.4l.65-.65.3-.5h.05v.05l-.1.45-.3.35-.7.5-.85.35-.5.15h-.95l-.7-.1-.9-.2-.5-.2-.4-.25-.55-.65-.4-.75.05-.1h.05" fill="#a28067"/><path d="M62.4 33.15l-.05.1.4.75.55.65.4.25.5.2.9.2.7.1h.95l.5-.15.85-.35.7-.5.3-.35q-.6 2-3.6 1.55-3.25-.3-3.2-2.8l.1.35" fill="#5c3317" fill-opacity=".243"/><path d="M68.4 31.45q-1.75-.7-3.6-.65l-1.6.2-.55.2.55-.25 1.6-.2q1.85-.05 3.6.6l.55.3-.55-.2" fill="#5a3a2b"/><linearGradient id="e" gradientUnits="userSpaceOnUse" gradientTransform="matrix(-.00381 -.00023 -.0001 .00157 65.75 32.1)" x1="-819.2" x2="819.2"><stop offset="0" stop-color="#50311c"/><stop offset=".424" stop-color="#beaca2"/><stop offset=".518" stop-color="#e3d8d1"/><stop offset=".635" stop-color="#ab978b"/><stop offset="1" stop-color="#714d35"/></linearGradient><path d="M62.3 32.8l.3-1.6h.05l.55-.2 1.6-.2q1.85-.05 3.6.65l.55.2.2.35.05.5V33.55h-.05l-.1-.3v-.05l-.05-.85-.1-.35-.5-.35-.35-.1q-2.7-.8-5.2 0l-.35 1.15-.1.45-.1-.35" fill="url(#e)"/><radialGradient id="f" gradientUnits="userSpaceOnUse" gradientTransform="matrix(-.00476 0 0 .0048 66.05 34.7)" spreadMethod="pad" cx="0" cy="0" r="819.2" fx="0" fy="0"><stop offset="0" stop-color="#fff" stop-opacity=".482"/><stop offset="1" stop-color="#fff" stop-opacity="0"/></radialGradient><path d="M62.55 32.9q.2 1.3 1.15 1.7l3.05.4q2.05.05 2-2-.1 1.65-2 1.7l-2.8-.3q-.95-.25-1.4-1.5" fill="url(#f)"/><path d="M71.45 32.3l.05-.15h.1l-.15.3-2.35.1h-.05v-.1l.05-.05 2.35-.1" fill="#5c3d23" fill-opacity=".792"/><linearGradient id="g" gradientUnits="userSpaceOnUse" gradientTransform="matrix(.00108 0 0 .0003 70.25 32.15)" x1="-819.2" x2="819.2"><stop offset="0" stop-color="#3b200b"/><stop offset=".494" stop-color="#ad8364"/><stop offset="1" stop-color="#563a24"/></linearGradient><path d="M69.1 32.4h-.05v-.1l.05-.05v-.15l2.5-.1-.1.15-.05.15-2.35.1" fill="url(#g)"/></g></svg>

<?xml version="1.0" encoding="utf-8"?>
<svg version="1.1" id="Layer_1"
xmlns="http://www.w3.org/2000/svg"
xmlns:xlink="http://www.w3.org/1999/xlink"
xmlns:author="http://www.sothink.com"
width="21px" height="6px"
xml:space="preserve">
<g id="650" transform="matrix(1, 0, 0, 1, -59.9, -30)">
<path style="fill:#E3D0C1;fill-opacity:0.541176" d="M69,33.4L68.9 32.85L69 32.35L69.25 32.1L69.5 32.35L69.6 32.85L69.5 33.4L69.25 33.6L69 33.4" />
<radialGradient
id="RadialGradID_5266" gradientUnits="userSpaceOnUse" gradientTransform="matrix(-0.000366211, 0, 0, 0.000732422, 69.35, 32.8)" spreadMethod ="pad" cx="0" cy="0" r="819.2" fx="0" fy="0" >
<stop  offset="0"  style="stop-color:#FFFFFF;stop-opacity:1" />
<stop  offset="1"  style="stop-color:#FFFFFF;stop-opacity:0" />
</radialGradient>
<path style="fill:url(#RadialGradID_5266) " d="M69.2,33.1L69.35 33.25L69.5 33.1L69.55 32.8L69.5 32.45L69.35 32.35Q69.25 32.35 69.2 32.45L69.1 32.8L69.2 33.1" />
<path style="fill:#311100;fill-opacity:1" d="M60.4,30.65L60.35 30.45L60.35 30.4L60.35 30.35L60 30L59.9 30.05L60 30.45L60.05 30.85L60.25 31.1L60.3 31.15L60.4 30.65M62.5,32.2L62.45 32.05L61.65 31.75L61.5 31.85L61.5 32.1L61.55 32.3L61.7 32.4L61.85 32.45L62.5 32.45L62.5 32.2" />
<path style="fill:#65452E;fill-opacity:0.792157" d="M61.5,32.1L61.5 31.85L61.65 31.75L61.45 31.65L60.35 30.45L60.4 30.65L60.3 31.15L60.35 31.2L61.55 32.3L61.5 32.1" />
<path style="fill:#8A6552;fill-opacity:1" d="M62.5,32.45L62.9 32.5L62.9 32.35L62.75 32.15L62.7 32.05L62.45 32.05L62.5 32.2L62.5 32.45" />
<path style="fill:#E3D0C1;fill-opacity:0.541176" d="M71.55,33.4L71.3 33.6L71.05 33.4L70.95 32.85L71.05 32.35L71.3 32.1L71.55 32.35L71.65 32.85L71.55 33.4" />
<radialGradient
id="RadialGradID_5267" gradientUnits="userSpaceOnUse" gradientTransform="matrix(0.000366211, 0, 0, 0.000732422, 71.25, 32.8)" spreadMethod ="pad" cx="0" cy="0" r="819.2" fx="0" fy="0" >
<stop  offset="0"  style="stop-color:#FFFFFF;stop-opacity:1" />
<stop  offset="1"  style="stop-color:#FFFFFF;stop-opacity:0" />
</radialGradient>
<path style="fill:url(#RadialGradID_5267) " d="M71.4,33.1L71.25 33.25L71.05 33.1L71 32.8L71.05 32.45L71.25 32.35L71.4 32.45L71.45 32.8L71.4 33.1" />
<path style="fill:#311100;fill-opacity:1" d="M80.1,30.65L80.15 30.45L80.15 30.4L80.15 30.35L80.5 30L80.6 30.05L80.5 30.45L80.45 30.85L80.25 31.1L80.2 31.15L80.1 30.65M78,32.2L78.05 32.05L78.85 31.75L79 31.85L79 32.1L78.95 32.3L78.8 32.4L78.65 32.45L78 32.45L78 32.2" />
<path style="fill:#65452E;fill-opacity:0.792157" d="M79,32.1L79 31.85L78.85 31.75L79.05 31.65L80.15 30.45L80.1 30.65L80.2 31.15L80.15 31.2L78.95 32.3L79 32.1" />
<path style="fill:#8A6552;fill-opacity:1" d="M78,32.45L77.6 32.5L77.6 32.35L77.75 32.15L77.8 32.05L78.05 32.05L78 32.2L78 32.45" />
<path style="fill:#A28067;fill-opacity:1" d="M71.45,34.05L71.3 33.6L71.35 33.55L71.65 34.05L72.3 34.7L73.15 35.1L74 35.3L74.7 35.25L75.4 35.2L76.25 35L76.75 34.8L77.45 34.3L77.9 33.6L78.1 33.15L78.15 33.15L78.15 33.25L77.8 34L77.25 34.65L76.8 34.9L76.3 35.1L75.4 35.3L74.75 35.4L73.8 35.4L73.3 35.25L72.4 34.9L71.75 34.4L71.45 34.05" />
<path style="fill:#5C3317;fill-opacity:0.243137" d="M71.75,34.4L72.4 34.9L73.3 35.25L73.8 35.4L74.75 35.4L75.4 35.3L76.3 35.1L76.8 34.9L77.25 34.65L77.8 34L78.15 33.25L78.15 33.15L78.15 33.1L78.2 32.8L78.2 33.05Q78.1 35.3 75 35.6Q72.05 36.05 71.45 34.05L71.75 34.4" />
<path style="fill:#5A3A2B;fill-opacity:1" d="M77.3,31L75.7 30.8Q73.85 30.75 72.15 31.45L71.6 31.65L72.15 31.35Q73.85 30.7 75.7 30.75L77.3 30.95L77.9 31.2L77.3 31" />
<linearGradient
id="LinearGradID_5268" gradientUnits="userSpaceOnUse" gradientTransform="matrix(0.00382996, -0.000228882, 0.000106812, 0.00157166, 74.75, 32.1)" spreadMethod ="pad" x1="-819.2" y1="0" x2="819.2" y2="0" >
<stop  offset="0" style="stop-color:#50311C;stop-opacity:1" />
<stop  offset="0.423529" style="stop-color:#BEACA2;stop-opacity:1" />
<stop  offset="0.517647" style="stop-color:#E3D8D1;stop-opacity:1" />
<stop  offset="0.635294" style="stop-color:#AB978B;stop-opacity:1" />
<stop  offset="1" style="stop-color:#714D35;stop-opacity:1" />
</linearGradient>
<path style="fill:url(#LinearGradID_5268) " d="M77.9,31.2L78.2 32.65L78.2 32.8L78.15 33.1L78.15 33.15L78.1 33.15L78 32.7L77.65 31.55Q75.15 30.75 72.45 31.55L72.15 31.65Q71.7 31.8 71.6 32L71.55 32.35L71.45 33.2L71.45 33.25L71.35 33.55L71.3 33.2L71.35 32.5L71.35 32L71.55 31.65L71.6 31.65L72.15 31.45Q73.85 30.75 75.7 30.8L77.3 31L77.9 31.2" />
<radialGradient
id="RadialGradID_5269" gradientUnits="userSpaceOnUse" gradientTransform="matrix(0.00476074, 0, 0, 0.00480652, 74.5, 34.7)" spreadMethod ="pad" cx="0" cy="0" r="819.2" fx="0" fy="0" >
<stop  offset="0"  style="stop-color:#FFFFFF;stop-opacity:0.482353" />
<stop  offset="1"  style="stop-color:#FFFFFF;stop-opacity:0" />
</radialGradient>
<path style="fill:url(#RadialGradID_5269) " d="M77.95,32.9Q77.8 34.2 76.8 34.6L73.75 35Q71.7 35.05 71.75 33Q71.9 34.65 73.75 34.7L76.6 34.4Q77.5 34.15 77.95 32.9" />
<path style="fill:#A28067;fill-opacity:1" d="M62.45,33.15L62.6 33.6L63.05 34.3L63.8 34.8L64.25 35L65.15 35.2L65.85 35.25L66.5 35.3L67.35 35.1Q67.85 35 68.2 34.7L68.85 34.05L69.15 33.55L69.2 33.55L69.2 33.6L69.1 34.05L68.8 34.4L68.1 34.9L67.25 35.25L66.75 35.4L65.8 35.4L65.1 35.3L64.2 35.1L63.7 34.9L63.3 34.65L62.75 34L62.35 33.25L62.4 33.15L62.45 33.15" />
<path style="fill:#5C3317;fill-opacity:0.243137" d="M62.4,33.15L62.35 33.25L62.75 34L63.3 34.65L63.7 34.9L64.2 35.1L65.1 35.3L65.8 35.4L66.75 35.4L67.25 35.25L68.1 34.9L68.8 34.4L69.1 34.05Q68.5 36.05 65.5 35.6Q62.25 35.3 62.3 32.8L62.4 33.15" />
<path style="fill:#5A3A2B;fill-opacity:1" d="M68.4,31.45Q66.65 30.75 64.8 30.8L63.2 31L62.65 31.2L63.2 30.95L64.8 30.75Q66.65 30.7 68.4 31.35L68.95 31.65L68.4 31.45" />
<linearGradient
id="LinearGradID_5270" gradientUnits="userSpaceOnUse" gradientTransform="matrix(-0.0038147, -0.000228882, -9.15527e-005, 0.00157166, 65.75, 32.1)" spreadMethod ="pad" x1="-819.2" y1="0" x2="819.2" y2="0" >
<stop  offset="0" style="stop-color:#50311C;stop-opacity:1" />
<stop  offset="0.423529" style="stop-color:#BEACA2;stop-opacity:1" />
<stop  offset="0.517647" style="stop-color:#E3D8D1;stop-opacity:1" />
<stop  offset="0.635294" style="stop-color:#AB978B;stop-opacity:1" />
<stop  offset="1" style="stop-color:#714D35;stop-opacity:1" />
</linearGradient>
<path style="fill:url(#LinearGradID_5270) " d="M62.3,32.8L62.6 31.2L62.65 31.2L63.2 31L64.8 30.8Q66.65 30.75 68.4 31.45L68.95 31.65L69.15 32L69.2 32.5L69.2 33.2L69.2 33.55L69.15 33.55L69.05 33.25L69.05 33.2L69 32.35L68.9 32L68.4 31.65L68.05 31.55Q65.35 30.75 62.85 31.55L62.5 32.7L62.4 33.15L62.3 32.8" />
<radialGradient
id="RadialGradID_5271" gradientUnits="userSpaceOnUse" gradientTransform="matrix(-0.00476074, 0, 0, 0.00480652, 66.05, 34.7)" spreadMethod ="pad" cx="0" cy="0" r="819.2" fx="0" fy="0" >
<stop  offset="0"  style="stop-color:#FFFFFF;stop-opacity:0.482353" />
<stop  offset="1"  style="stop-color:#FFFFFF;stop-opacity:0" />
</radialGradient>
<path style="fill:url(#RadialGradID_5271) " d="M62.55,32.9Q62.75 34.2 63.7 34.6L66.75 35Q68.8 35.05 68.75 33Q68.65 34.65 66.75 34.7L63.95 34.4Q63 34.15 62.55 32.9" />
<path style="fill:#5C3D23;fill-opacity:0.792157" d="M71.45,32.3L71.5 32.15L71.6 32.15L71.45 32.45L69.1 32.55L69.05 32.55L69.05 32.45L69.1 32.4L71.45 32.3" />
<linearGradient
id="LinearGradID_5272" gradientUnits="userSpaceOnUse" gradientTransform="matrix(0.00108337, 0, 0, 0.000305176, 70.25, 32.15)" spreadMethod ="pad" x1="-819.2" y1="0" x2="819.2" y2="0" >
<stop  offset="0" style="stop-color:#3B200B;stop-opacity:1" />
<stop  offset="0.494118" style="stop-color:#AD8364;stop-opacity:1" />
<stop  offset="1" style="stop-color:#563A24;stop-opacity:1" />
</linearGradient>
<path style="fill:url(#LinearGradID_5272) " d="M69.1,32.4L69.05 32.4L69.05 32.3L69.1 32.25L69.1 32.1L71.6 32L71.5 32.15L71.45 32.3L69.1 32.4" />
</g>
</svg>
